X:1
T:Title
%%score { ( 1 3 ) | ( 2 4 ) }
L:1/8
Q:1/4=100
M:4/4
K:G
V:1 treble nm="Grand Piano"
V:3 treble 
V:2 bass 
V:4 bass 
V:1
 [DB]3 [DB] [CA]2 [B,G]2 | D2 [DE]2 [CG] [CF]3 | [Fd]3 [Fd] [Fd] [FA]3 | B6 z2 | %4
w: Charles~H.~Gabriel,~Jr. * * *||||
 [DB]3 [DB] [CA]2 [B,G]2 | [G,B,D]2 [B,DE]2 [A,EG] [A,DF]3 | [DFA]3 [Fd] [Ge] [Ge]3 | d6 z2 | %8
w: ||||
 d3 e d2 B2 | [FA]2 D2 G B3 | d3 e d2 B2 | z4 z [FA]3 | d3 e d2 B2 | A2 G2 e e2 [Ge] | %14
w: ||||||
 [Gd]3 [B,G] [DFB] [CFA]3 | [B,DG]6 z2 |] %16
w: ||
V:2
 [G,,G,]3 [G,,G,] [G,,D,]2 [G,,D,]2 | [B,,G,]2 [B,,G,]2 [A,,D,] [D,A,]3 | %2
 [D,A,]3 [D,A,] [D,A,] [D,D]3 | [G,DG]2 [G,D]<[G,D] [G,D]2 z2 | %4
 [G,,G,]3 [G,,G,] [G,,D,]2 [G,,D,]2 | G,,2 G,,2 A,, A,,3 | A,,3 [A,,A,] [A,,^C] [A,,C]3 | %7
 [A,D]2 B,<B, C2 z2 | [G,B,G]3 [G,CG] [G,B,G]2 [G,DG]2 | [D,C]2 [F,C]2[K:treble] [G,B,D] [G,DG]3 | %10
 [G,B,G]3 [G,CG] [G,B,G]2 [G,DG]2 | [A,^CG]2[K:bass] [A,C]2 [D,D] .[D,D]3 | %12
 [G,B,G]3 [G,CG] [G,B,G]2 [G,DG]2 | [A,DF]2 [B,D=F]2 [CG] [CG]2[K:bass] [C,C] | [D,B,]3 D, D, D,3 | %15
 G,6 z2 |] %16
V:3
 x8 | x8 | x8 | z2 G<G G2 z2 | x8 | x8 | x8 | F2 G<G A2 z2 | x8 | x8 | x8 | A2 E2 .[FB]2 z C | x8 | %13
 x8 | x8 | x8 |] %16
V:4
 x8 | x8 | x8 | x8 | x8 | x8 | x8 | D,6 z2 | x8 | x4[K:treble] x4 | x8 | x2[K:bass] x6 | x8 | %13
 x7[K:bass] x | x8 | x8 |] %16

